ui/StatusQ/src/assets/img/icons/tabs.svg

<svg fill="none" height="24" viewBox="0 0 24 24" width="24" xmlns="http://www.w3.org/2000/svg"><path clip-rule="evenodd" d="m2 6c0-2.20914 1.79086-4 4-4h6c2.2091 0 4 1.79086 4 4v1.5c0 .27614.2239.5.5.5h1.5c2.2091 0 4 1.79086 4 4v6c0 2.2091-1.7909 4-4 4h-6c-2.20914 0-4-1.7909-4-4v-1.5c0-.2761-.22386-.5-.5-.5h-1.5c-2.20914 0-4-1.7909-4-4zm4-2.5h6c1.3807 0 2.5 1.11929 2.5 2.5v6c0 1.3807-1.1193 2.5-2.5 2.5h-6c-1.38071 0-2.5-1.1193-2.5-2.5v-6c0-1.38071 1.11929-2.5 2.5-2.5zm4 12.5c-.27614 0-.5.2239-.5.5v1.5c0 1.3807 1.1193 2.5 2.5 2.5h6c1.3807 0 2.5-1.1193 2.5-2.5v-6c0-1.3807-1.1193-2.5-2.5-2.5h-1.5c-.2761 0-.5.22386-.5.5v2c0 2.2091-1.7909 4-4 4z" fill="#000" fill-rule="evenodd"/></svg>

<svg width="24" height="24" viewBox="0 0 24 24" fill="none" xmlns="http://www.w3.org/2000/svg">
<path fill-rule="evenodd" clip-rule="evenodd" d="M2 6C2 3.79086 3.79086 2 6 2H12C14.2091 2 16 3.79086 16 6V7.5C16 7.77614 16.2239 8 16.5 8H18C20.2091 8 22 9.79086 22 12V18C22 20.2091 20.2091 22 18 22H12C9.79086 22 8 20.2091 8 18V16.5C8 16.2239 7.77614 16 7.5 16H6C3.79086 16 2 14.2091 2 12V6ZM6 3.5H12C13.3807 3.5 14.5 4.61929 14.5 6V12C14.5 13.3807 13.3807 14.5 12 14.5H6C4.61929 14.5 3.5 13.3807 3.5 12V6C3.5 4.61929 4.61929 3.5 6 3.5ZM10 16C9.72386 16 9.5 16.2239 9.5 16.5V18C9.5 19.3807 10.6193 20.5 12 20.5H18C19.3807 20.5 20.5 19.3807 20.5 18V12C20.5 10.6193 19.3807 9.5 18 9.5H16.5C16.2239 9.5 16 9.72386 16 10V12C16 14.2091 14.2091 16 12 16H10Z" fill="black"/>
</svg>
